icon-themes/sifr_svg/cmd/lc_formattedfield.svg

<svg viewBox="0 0 24 24" xmlns="http://www.w3.org/2000/svg"><path d="m8.4921875 7.6796875-4.8125 10.8281245 1.828125.8125 4.8124995-10.8281245zm9.5078125.3203125c-1.10457 0-2 .8954304-2 2v2h-2v2h2v5h2v-5h2v-2h-2v-2h4v-2zm-14.5 1a2.5 2.5 0 0 0 -2.5 2.5 2.5 2.5 0 0 0 2.5 2.5 2.5 2.5 0 0 0 2.5-2.5 2.5 2.5 0 0 0 -2.5-2.5zm0 2a.5.5 0 0 1 .5.5.5.5 0 0 1 -.5.5.5.5 0 0 1 -.5-.5.5.5 0 0 1 .5-.5zm7 2a2.5 2.5 0 0 0 -2.5 2.5 2.5 2.5 0 0 0 2.5 2.5 2.5 2.5 0 0 0 2.5-2.5 2.5 2.5 0 0 0 -2.5-2.5zm0 2a.5.5 0 0 1 .5.5.5.5 0 0 1 -.5.5.5.5 0 0 1 -.5-.5.5.5 0 0 1 .5-.5z" fill="#555753"/></svg>

<svg xmlns="http://www.w3.org/2000/svg" viewBox="0 0 24 24">
  <path
     style="fill:#555753"
     d="M 8.4921875 7.6796875 L 3.6796875 18.507812 L 5.5078125 19.320312 L 10.320312 8.4921875 L 8.4921875 7.6796875 z M 18 8 C 16.89543 8 16 8.8954304 16 10 L 16 12 L 14 12 L 14 14 L 16 14 L 16 19 L 18 19 L 18 14 L 20 14 L 20 12 L 18 12 L 18 10 L 22 10 L 22 8 L 18 8 z M 3.5 9 A 2.5 2.5 0 0 0 1 11.5 A 2.5 2.5 0 0 0 3.5 14 A 2.5 2.5 0 0 0 6 11.5 A 2.5 2.5 0 0 0 3.5 9 z M 3.5 11 A 0.5 0.5 0 0 1 4 11.5 A 0.5 0.5 0 0 1 3.5 12 A 0.5 0.5 0 0 1 3 11.5 A 0.5 0.5 0 0 1 3.5 11 z M 10.5 13 A 2.5 2.5 0 0 0 8 15.5 A 2.5 2.5 0 0 0 10.5 18 A 2.5 2.5 0 0 0 13 15.5 A 2.5 2.5 0 0 0 10.5 13 z M 10.5 15 A 0.5 0.5 0 0 1 11 15.5 A 0.5 0.5 0 0 1 10.5 16 A 0.5 0.5 0 0 1 10 15.5 A 0.5 0.5 0 0 1 10.5 15 z "
     />
</svg>
